X:1
T:Title
L:1/8
Q:1/4=100
M:2/4
K:F
V:1 treble nm="Grand Piano"
V:1
 A,2 DE | F2 F2 | E3 E | D4 | D2 FG | A2 BA | G4- | G4 | G2 GA | B2 cB | A3 G | F2 FF | E2 EF | %13
w: Peter~van~Woerden * *|||||||||||||
 GG FE | D4- | D4 |] %16
w: |||

